X:727
T:Castle Donovan
M:6/8
L:1/8
R:jig
B:O'Neill's 727
N:"collected by F. O'Neill"
Z:transcribed by mvhplank
K:G
G/2A/2|B3 ABA|GAG GBd|edd gdB|BAG Adc|\
BcB ABA|GAG GBd|edd gdB|cAF G2:|
<START_ANN> %                          ^------------------- changed from G to F <END_ANN>
||d|gfg efg|fag fed|gfg dfg|afd d2 c|\
BcB ABA|GAG GBd|edd gdB|cAF G2:|
